T: Thomas Burke
M: 4/4
L: 1/8
K: Gmaj
dc|{c}B2AG Bc d2|D2G/2A/2G G2c2|BcdB edcB|A6dc|
B2d2c2e2|d2g2gfed|efge f/2g/2a gf|g6d2|
ga b2b2ab|gagf e2fg|abag fgfe|d6ef|
g2G2G2ed|e2E2E2e2|edcB cBAG|G6Bc|
dedc BcdB|g2G2G2EF|GAGF EFGE|AGFE D2GA|
B2Bc BAGF|E2g2f2ed|eged BABd|e6fe/2f/2|
g2gf e2ef|gafg e2d/2e/2f|gfed edcB|{B}A6A/2B/2c|
B2B/2c/2d ef g2|fgaf gfgd|edcB cBAG|G6ef|
gagf edef|gafg e2d/2e/2f|gagf  (3edc  (3dcB|A6A/2B/2c|
BcdB efge|fgaf gfgd| (3edc  (3dcB cBAG|G6|]
